03/images/icon-firstview-info-twitter.svg

<svg fill="none" height="50" viewBox="0 0 50 50" width="50" xmlns="http://www.w3.org/2000/svg"><path d="m25 .242676c-13.8069 0-25 10.977824-25 24.519224s11.1931 24.5192 25 24.5192 25-10.9778 25-24.5192-11.1931-24.519224-25-24.519224zm13.4542 18.036624c.1972 1.9329-1.282 15.0807-12.025 18.6578-10.7445 3.5771-18.13614-1.5475-18.13614-1.5475 6.30834.3869 9.85694-2.7066 9.85694-2.7066-5.3222-.7737-6.3083-4.7363-6.3083-4.7363 1.1833.1934 2.6611-.2902 2.6611-.2902-5.51947-2.4165-5.02641-6.7673-5.02641-6.7673 1.08471 1.0639 2.85831.8705 2.85831.8705-5.12498-3.964-2.0694-9.2806-2.0694-9.2806 5.6347 6.2742 11.6778 7.1229 14.1375 7.1842-.0917-.4468-.1403-.91-.1403-1.384 0-3.8441 3.1778-6.9607 7.0972-6.9607 2.1153 0 4.0125.9085 5.3125 2.347 1.6153-.3542 4.0514-1.6714 4.0514-1.6714-.2472 1.2954-2.218 2.9927-2.8542 3.5117.0292.0667.057.1335.0848.2016 1.1361.0204 3.7541-1.1034 3.7541-1.1034-1.0861 2.1278-3.2541 3.6752-3.2541 3.6752z" fill="#333"/></svg>

<svg width="50" height="50" viewBox="0 0 50 50" fill="none" xmlns="http://www.w3.org/2000/svg">
<path d="M25 0.242676C11.1931 0.242676 0 11.2205 0 24.7619C0 38.3033 11.1931 49.2811 25 49.2811C38.8069 49.2811 50 38.3033 50 24.7619C50 11.2205 38.8069 0.242676 25 0.242676ZM38.4542 18.2793C38.6514 20.2122 37.1722 33.36 26.4292 36.9371C15.6847 40.5142 8.29306 35.3896 8.29306 35.3896C14.6014 35.7765 18.15 32.683 18.15 32.683C12.8278 31.9093 11.8417 27.9467 11.8417 27.9467C13.025 28.1401 14.5028 27.6565 14.5028 27.6565C8.98333 25.24 9.47639 20.8892 9.47639 20.8892C10.5611 21.9531 12.3347 21.7597 12.3347 21.7597C7.20972 17.7957 10.2653 12.4791 10.2653 12.4791C15.9 18.7533 21.9431 19.602 24.4028 19.6633C24.3111 19.2165 24.2625 18.7533 24.2625 18.2793C24.2625 14.4352 27.4403 11.3186 31.3597 11.3186C33.475 11.3186 35.3722 12.2271 36.6722 13.6656C38.2875 13.3114 40.7236 11.9942 40.7236 11.9942C40.4764 13.2896 38.5056 14.9869 37.8694 15.5059C37.8986 15.5726 37.9264 15.6394 37.9542 15.7075C39.0903 15.7279 41.7083 14.6041 41.7083 14.6041C40.6222 16.7319 38.4542 18.2793 38.4542 18.2793Z" fill="white"/>
</svg>
